X:238
T: Ringeltanz
N: A0284
O: Europa, Mitteleuropa, Deutschland
N: Geistliche Ringeltentze 1550 "Der 23. Psalm..."
R: Romanze, Ballade, Lied
M: 3/2
L: 1/4
K: G
G2 | d4=f2 | e4d2 | c2A2B2 | G4
G2 | d4=f2 | e4d2 | c2A2B2 | G4
G2 | A3Bc2 | d4d2 | c4A2 | G4G2 | D3EF2 | G4
G2 | A3Bc2 | d4d2 | c4A2 | G4G2 | D3EF2 | G4

@@@ Tune index: 238
